fs/subtract_circle_arrow_forward_16_regular.svg

<svg viewBox="0 0 16 16" fill="none" xmlns="http://www.w3.org/2000/svg" height="1em" width="1em">
  <path d="M8 3C5.23858 3 3 5.23858 3 8C3 10.7614 5.23858 13 8 13C8.00916 13 8.01831 13 8.02746 12.9999C8.06557 13.3448 8.14265 13.6779 8.25419 13.9947C8.1699 13.9982 8.08516 14 8 14C4.68629 14 2 11.3137 2 8C2 4.68629 4.68629 2 8 2C11.3137 2 14 4.68629 14 8C14 8.08516 13.9982 8.1699 13.9947 8.25419C13.6779 8.14265 13.3448 8.06557 12.9999 8.02746C13 8.01831 13 8.00916 13 8C13 5.23858 10.7614 3 8 3ZM10.4364 8.5C10.765 8.33013 11.1172 8.19956 11.4868 8.11452C11.4954 8.07774 11.5 8.0394 11.5 8C11.5 7.72386 11.2761 7.5 11 7.5H5C4.72386 7.5 4.5 7.72386 4.5 8C4.5 8.27614 4.72386 8.5 5 8.5H10.4364ZM12.5 16C10.567 16 9 14.433 9 12.5C9 10.567 10.567 9 12.5 9C14.433 9 16 10.567 16 12.5C16 14.433 14.433 16 12.5 16ZM13.1464 11.1464C12.9512 11.3417 12.9512 11.6583 13.1464 11.8536L13.2929 12H11.25C10.5596 12 10 12.5596 10 13.25V13.5C10 13.7761 10.2239 14 10.5 14C10.7761 14 11 13.7761 11 13.5V13.25C11 13.1119 11.1119 13 11.25 13H13.2929L13.1464 13.1464C12.9512 13.3417 12.9512 13.6583 13.1464 13.8536C13.3417 14.0488 13.6583 14.0488 13.8536 13.8536L14.8536 12.8536C15.0488 12.6583 15.0488 12.3417 14.8536 12.1464L13.8536 11.1464C13.6583 10.9512 13.3417 10.9512 13.1464 11.1464Z" fill="#212121"/>
</svg>

<svg viewBox="0 0 16 16" fill="none" xmlns="http://www.w3.org/2000/svg" height="1em" width="1em">
  <path d="M8 3a5 5 0 0 0 0 10h.027c.039.345.116.678.227.995a6 6 0 1 1 5.74-5.74A4.472 4.472 0 0 0 13 8.026V8a5 5 0 0 0-5-5Zm2.436 5.5c.329-.17.681-.3 1.05-.385A.503.503 0 0 0 11 7.5H5a.5.5 0 0 0 0 1h5.436ZM12.5 16a3.5 3.5 0 1 1 0-7 3.5 3.5 0 0 1 0 7Zm.646-4.854a.5.5 0 0 0 0 .708l.147.146H11.25c-.69 0-1.25.56-1.25 1.25v.25a.5.5 0 0 0 1 0v-.25a.25.25 0 0 1 .25-.25h2.043l-.147.146a.5.5 0 0 0 .708.708l1-1a.5.5 0 0 0 0-.708l-1-1a.5.5 0 0 0-.708 0Z" fill="#212121"/>
</svg>
